assets/images/footer/medium.svg

<svg width="20" height="16" viewBox="0 0 20 16" fill="none" xmlns="http://www.w3.org/2000/svg">
<path d="M18.4042 1.88042L20 0.337684V0H14.4717L10.5317 9.90989L6.04917 0H0.2525V0.337684L2.11667 2.60547C2.29833 2.77305 2.39333 3.01811 2.36917 3.26484V12.1768C2.42667 12.4977 2.32333 12.8278 2.1 13.0611L0 15.6328V15.9663H5.95417V15.6286L3.85417 13.0611C3.62667 12.8269 3.51917 12.5027 3.565 12.1768V4.46821L8.79167 15.9705H9.39917L13.8933 4.46821V13.6312C13.8933 13.8728 13.8933 13.9225 13.7367 14.0808L12.12 15.6615V16H19.9633V15.6623L18.405 14.1204C18.2683 14.016 18.1975 13.8408 18.2267 13.6707V2.33011C18.1975 2.15916 18.2675 1.984 18.4042 1.88042Z" fill="#CFCFCF"/>
</svg>

<svg width="20" height="16" fill="none" xmlns="http://www.w3.org/2000/svg"><path d="M18.404 1.88 20 .338V0h-5.528l-3.94 9.91L6.049 0H.253v.338l1.864 2.267a.795.795 0 0 1 .252.66v8.912c.058.32-.046.65-.269.884L0 15.633v.333h5.954v-.337l-2.1-2.568a1.055 1.055 0 0 1-.289-.884V4.468L8.792 15.97h.607l4.494-11.502v9.163c0 .242 0 .291-.156.45l-1.617 1.58V16h7.843v-.338l-1.558-1.542a.47.47 0 0 1-.178-.45V2.33a.469.469 0 0 1 .177-.45z" fill="#CFCFCF"/></svg>
